X: 2
T: The Foxhunter
R: reel
M: 4/4
L: 1/8
K: Gmaj
dGBG dGBG|dGBG AGEG|dGBG dGBG|GABG AGEG:||:~D3 B BABG|DGBG AGEG|~D3 B BABG|AcBG AGEG:||:gedB G2 Bd|gdBd eA ~A2|gedB GBdB|ABcd eA ~A2:||:dggf g4|dg ~g2 egdB|dggf ~g3d|(3efg dB AGAB:||:~G2 BG dGBG|GB ~B2 AGAB|~G2 BG dGBG|(3efg dB AGAB:|


Tune 511	Setting 22807

